symbols/web/mic/materialsymbolssharp/mic_wght500fill1_20px.svg

<svg xmlns="http://www.w3.org/2000/svg" height="20" width="20"><path d="M10.021 12.021q-1.146 0-1.959-.813-.812-.812-.812-1.958V4.312q0-1.145.812-1.958.813-.812 1.959-.812 1.146 0 1.948.812.802.813.802 1.958V9.25q0 1.146-.802 1.958-.802.813-1.948.813Zm-.959 5.791v-2.52q-2.229-.313-3.687-2.032-1.458-1.718-1.458-4.01h1.895q0 1.75 1.23 2.979 1.229 1.229 2.979 1.229 1.729 0 2.958-1.229t1.229-2.979h1.896q0 2.292-1.437 4.01-1.438 1.719-3.688 2.011v2.541Z"/></svg>

<svg xmlns="http://www.w3.org/2000/svg" height="20" width="20"><path d="M10.021 12.021Q8.875 12.021 8.062 11.208Q7.25 10.396 7.25 9.25V4.312Q7.25 3.167 8.062 2.354Q8.875 1.542 10.021 1.542Q11.167 1.542 11.969 2.354Q12.771 3.167 12.771 4.312V9.25Q12.771 10.396 11.969 11.208Q11.167 12.021 10.021 12.021ZM9.062 17.812V15.292Q6.833 14.979 5.375 13.26Q3.917 11.542 3.917 9.25H5.812Q5.812 11 7.042 12.229Q8.271 13.458 10.021 13.458Q11.75 13.458 12.979 12.229Q14.208 11 14.208 9.25H16.104Q16.104 11.542 14.667 13.26Q13.229 14.979 10.979 15.271V17.812Z"/></svg>
